X:512
T: Congci renmin danglejia
N: C1931
O: China,Henan Tanghe
S: IV, 107]
R: Xiaodiao, Hanchuan diao]
M: 2/4
L: 1/16
K: A
B2e4c2 | B4A2F2 | B4c2e2 | B2B2A4 | c'2c'c'c'2c'2 | c'4z4 |
F2c4F2 | A2F2E4 | A4A3F | A2AFE4 | c'2c'c'c'2c'2 | c'4z4 |
F2E4F2 | A4A3F | B4c3e | B2B2A4 |
F2E4F2 | A4c4 | B4A4 | A4B3c | F4E3C | E2E6 |
c'4c'2z2 | c'4c'2z2 | c'2c'c'c'2c'2 | c'4z4 |
F3AF3A | B6c2 | A3BA2F2 | E8 |
c2c4Bc | A2BcB4 | A2F2E4 | A4A3F | E8

@@@ Tune index: 7067
